X:1088
T:Wait For The Wagon
C:Traditional American
R:Reel
S:Colin Hume's website,  colinhume.com  - chords can also be printed below the stave.
Q:1/4=120
M:2/4
L:1/8
%%MIDI ratio 3 1
%%MIDI gchord fzczfzcz
K:C
|: G/G/ | "C"cc CC | EG G>G | "C"GG "G7"FF | "C"E2 z G/G/ |\
"C"cc CC | EG zG | "F"A2 "G7"BB |1 "C"c3 :|2 "C"c3 z |
"C"c2 CC | EG z2 | "C7"e2 e>d | "F"cA z2 |\
"C"c2 CC | EG GG | "F"A2 "G7"B>c | "C"c2 z |]

